X: 8546
T: Cribbies, The
R: reel
M: 4/4
K: Bminor
|:dBBA ~B3A|FAAF EFDA|dBBA FAEA|FEFA B3c|
dBBA B3A|FAAF EFDA|defg fdde|1 fgfe dBBA:|2 fgfe dBBc||
|:dfed cedc|BAFA Bcdc|dfaf a2fe|dcBA FBBc|
d2Bd cdec|BAFA Bcdc|defg fdde|1 fgfe dBBc:|2 fgfe dBBA||

